X:1
T:James Gibb editions
T:Praeparate corda vestra - Porta
T:#
%%score [ 1 2 3 4 ]
L:1/8
Q:1/4=90
M:4/4
K:C
V:1 treble-8 nm="Tenor I" snm="T I"
V:2 treble-8 nm="Tenor II" snm="T II"
V:3 bass nm="Bass I" snm="B I"
V:4 bass nm="Bass II" snm="B II"
V:1
"^Praeparate corda vestra""^Costanzo Porta\n(c.1529-1601)" e6 e2 | e4 f2 (e2- | e2 dc d2) e2 | %3
w: Prae- pa-|ra- te cor\-|* * * * da|
 (e4 f3 e | d2 f2 e4) | e2 e4 (dc) |[M:4/4][K:treble-8] B4 z4 | z2 e4 e2 | f3 e d2 d2 | c2 d2 e4 | %10
w: ve\- * *||stra Do- mi\- *|no,|et ser-|vi- te il- li|so- li, il-|
 d4 c4- | c2 A2 e4 | e4 z4 | e8 | d6 d2 | c2 d2 e4 | z2 e2 (d3 e | f2) e2 d4- | d4 A4 | c6 B2 | %20
w: li, il\-|* li so-|li|et|li- be-|ra- bit vos|de ma\- *|* ni- bus|* i-|ni- mi-|
 (B3 c d2) A2 | (B3 c d4) | e8- | e8 | e8 | z4 e4- | e4 c4 | c6 c2 | B4 c4 | (A4 d4) | c4 z2 A2 | %31
w: co\- * * rum|ve\- * *|stro\-||rum,|con\-|* ver-|ti- mi-|ni ad|e\- *|um in|
 e6 e2 | f4 f2 (e2- | ed/c/ d2) e4- | e4 z4 | e8 | d6 d2 | c2 d2 e4 | z2 e2 (d3 e | f2 e2 d4- | %40
w: to- to|cor- de ve\-|* * * * stro||et|li- be-|ra- bit vos|de ma\- *|* ni- bus|
 d4 A4 | c6 B2 | (B3 c d2) A2 | B3 c d4) | e8- | e8 | e8 |] %47
w: * i-|ni- mi-|co\- * * rum|ve\- * *|stro\-||rum.|
V:2
 (c6 BA | B2) c2 A2 G2 | A4 A2 c2- | c2 c2 A4- | A4 A4 | G4 z4 |[M:4/4][K:treble-8] z2 B4 B2 | %7
w: Prae\- * *|* pa- ra- te|cor- da ve\-|* stra Do\-|* mi-|no,|et ser-|
 (c3 B AG A2- | A2) A2 F4- | F2 D2 (G4 | F4) E2 A2- | AA (c4 BA | B2 c4 BA | B2 c2) G4 | z8 | %15
w: vi\- * * * *|* te il\-|* li so\-|* li, il\-|* li so\- * *||* * li||
 z4 z2 c2 | B3 B A2 B2 | c4 A4 | A6 F2 | G8 | z4 A4 | G2 E2 A4- | A2 G2 c4 | (A3 B c4) | B8 | %25
w: et|li- be- ra- bit|vos de|ma- ni-|bus|i-|ni- mi- co\-|* rum ve-|s~tro\- * *|rum,|
 z4 c4- | c4 A4 | (G3 F E2) E2 | D2 D2 A4- | A4 A4 | z2 A2 c4- | c4 G4 | (d4 c4- | c2 BA B4) | %34
w: con\-|* ver-|ti\- * * mi-|ni ad e\-|* um|in to\-|* to|cor\- *||
 B2 (A4 GF | G2 A2) E4 | z8 | z4 z2 c2 | B3 B A2 B2 | c4 A4 | A6 F2 | G8 | z4 A4 | G2 E2 A4- | %44
w: de ve\- * *|* * stro||et|li- be- ra- bit|vos de|ma- ni-|bus|i-|ni- mi- co\-|
 A2 G2 c4 | (A3 B c4) | B8 |] %47
w: * rum ve-|stro\- * *|rum.|
V:3
 (A,6 G,F, | G,2) A,4 C2- | C2 A,2 F,2 G,2 | (A,3 G, F,D, F,2- | F,G, A,B, C4- | C2) C2 (A,4- | %6
w: Prae\- * *|* pa- ra\-|* te cor- da|ve\- * * * *||* stra Do\-|
[M:4/4] A,2 G,F, G,2) G,2 | A,4 z4 | z4 A,4- | A,2 A,2 (C3 B, | A,G, A,4) E,2 | F,4 E,4 | %12
w: * * * * mi-|no|et|* ser- vi\- *|* * * te|il- li|
 z2 (C4 B,A, | B,2 C2) B,4- | B,4 z4 | A,4 G,4- | G,2 G,2 F,2 G,2 | A,4 F,4 | F,6 F,2 | E,4 D,4 | %20
w: so\- * *|* * li||et li\-|* be- ra- bit|vos de|ma- ni-|bus i-|
 E,4 D,4 | (G,6 F,2) | E,4 A,4 | (C3 B, A,4- | A,2 ^G,2) G,4 | z4 A,4- | A,4 E,4 |"^v" E,4 G,4- | %28
w: ni- mi-|co\- *|rum ve-|stro\- * *|* * rum,|con\-|* ver\-|* ti\-|
 G,2 G,2 F,2 E,2 | F,8 | E,8 | z4 E,4 | A,6 A,2 | F,4 E,4 | z2 (C4 B,A, | B,2 C2) B,4 | z8 | %37
w: * mi- ni ad|e-|um|in|to- to|cor- de|ve\- * *|* * stro||
 A,4 G,4- | G,2 G,2 F,2 G,2 | A,4 F,4 | F,6 F,2 | E,4 D,4 | E,4 D,4 | (G,6 F,2) | E,4 A,4 | %45
w: et li\-|* be- ra- bit|vos de|ma- ni-|bus i-|ni- mi-|co\- *|rum ve-|
 (C3 B, A,4) | ^G,8 |] %47
w: stro\- * *|rum.|
V:4
 z8 | (E,2 D,C, D,2) E,2 | F,4 D,2 C,2- | C,2 A,,2 D,4- | D,4 A,,4 | C,6 D,2 |[M:4/4] E,8 | z8 | %8
w: |Prae\- * * * pa-|ra- te cor\-|* da ve\-|* stra|Do- mi-|no,||
 D,6 D,2 | F,4 C,4 | D,4 A,,4 | (A,6 G,F, | G,2 A,2) E,4 | z2 A,2 G,4- | G,2 G,2 F,2 G,2 | %15
w: et ser-|vi- te|il- li|so\- * *|* * li|et li\-|* be- ra- bit|
 (A,2 G,F, E,4- | E,4) z4 | z4 D,4 | D,6 D,2 | C,4 G,,4 | G,6 F,2 | (E,4 D,4) | C,4 A,,4 | A,,8 | %24
w: vos * * *||de|ma- ni-|bus i-|ni- mi-|co\- *|rum ve-|s\-tro|
 E,8 | z8 | A,,6 A,,2 | C,6 C,2 | G,,4 A,,4 | D,8 | A,,8 | z2 A,,2 C,2 C,2 | D,4 A,,4 | (A,6 G,F, | %34
w: rum,||con- ver-|ti- mi-|ni ad|e-|um|in to- to|cor- de|ve\- * *|
 G,2 A,2) E,4 | z2 A,2 G,4- | G,2 G,2 F,2 G,2 | (A,2 G,F, E,4- | E,4) z4 | z4 D,4 | D,6 D,2 | %41
w: * * stro|et li\-|* be- ra- bit|vos * * *||de|ma- ni-|
 C,4 G,,4 | G,6"^XVI/2" F,2 | (E,4 D,4) | C,4 A,,4 | A,,8 |"^rum." E,8 |] %47
w: bus i-|ni- mi-|co\- *|rum ve-|stro-||

